packages/core/src/svgs/buy.svg

<svg width="24" height="24" viewBox="0 0 24 24" fill="none" xmlns="http://www.w3.org/2000/svg">
<g clip-path="url(#clip0_31_7619)">
<path d="M0 0H24V24H0V0Z" fill="url(#paint0_linear_31_7619)"/>
<path d="M19.2859 12.6427C19.3143 14.5182 18.5966 16.3281 17.2905 17.6744C15.9845 19.0206 14.1971 19.7929 12.3216 19.8213C10.4462 19.8497 8.63625 19.1319 7.29 17.8259C5.94376 16.5198 5.17148 14.7325 5.14307 12.857V6.857C5.14307 6.51601 5.27853 6.18898 5.51964 5.94787C5.76076 5.70675 6.08779 5.57129 6.42878 5.57129H12.2145C13.1431 5.57129 14.0627 5.7542 14.9206 6.10957C15.7786 6.46494 16.5581 6.98582 17.2148 7.64246C17.8714 8.29911 18.3923 9.07865 18.7476 9.9366C19.103 10.7945 19.2859 11.7141 19.2859 12.6427ZM7.7145 7.547C7.7145 7.20415 7.4145 6.857 7.07164 6.857C6.73307 6.857 6.42878 7.19986 6.42878 7.547V13.2599C6.42878 14.1599 7.04592 15.437 7.94164 16.4741C8.44129 17.0794 9.06735 17.568 9.77588 17.9056C10.4844 18.2432 11.2582 18.4217 12.0431 18.4284C14.2074 18.4284 15.7159 17.6013 16.6716 16.457C17.6145 15.3256 17.9959 13.9284 17.9959 12.8099C17.9959 11.6913 17.6059 10.247 16.7231 9.06843C16.235 8.38973 15.5908 7.8384 14.8449 7.46097C14.099 7.08354 13.2733 6.89109 12.4374 6.89986C12.0945 6.89986 11.8202 7.22557 11.8202 7.57272C11.8202 7.91557 12.0945 8.19415 12.4374 8.19415C13.9888 8.19415 15.0516 8.90129 15.7459 9.82272C16.3724 10.6947 16.711 11.7405 16.7145 12.8141C16.7145 13.6756 16.4702 14.777 15.7416 15.6513C15.0302 16.4999 13.8688 17.1427 12.0516 17.1427C11.4431 17.1446 10.8416 17.0118 10.2904 16.754C9.73912 16.4962 9.25172 16.1196 8.86307 15.6513C8.1045 14.7684 7.7145 13.7741 7.7145 13.2599V7.547ZM10.2859 7.547C10.2859 7.20415 9.98592 6.857 9.64735 6.857C9.30878 6.857 9.00021 7.19986 9.00021 7.547V12.8141C9.00021 13.9927 10.1402 15.707 12.2445 15.707C13.9974 15.707 15.4288 14.3913 15.4288 12.6213C15.4052 11.8357 15.0832 11.0886 14.5283 10.5321C13.9733 9.97554 13.2272 9.65138 12.4416 9.62557C12.0988 9.62557 11.8245 9.90843 11.8245 10.2513C11.8245 10.5941 12.0988 10.877 12.4416 10.877C13.3416 10.877 14.1431 11.7127 14.1431 12.6213C14.1431 13.7227 13.3202 14.4599 12.2445 14.4599C10.9674 14.4599 10.2859 13.4656 10.2859 12.8141V7.547Z" fill="url(#paint1_linear_31_7619)"/>
</g>
<defs>
<linearGradient id="paint0_linear_31_7619" x1="4.46571" y1="4.16143" x2="29.2071" y2="32.58" gradientUnits="userSpaceOnUse">
<stop stop-color="#1A1E21"/>
<stop offset="1" stop-color="#06060A"/>
</linearGradient>
<linearGradient id="paint1_linear_31_7619" x1="12.2145" y1="5.57129" x2="12.2145" y2="19.7141" gradientUnits="userSpaceOnUse">
<stop stop-color="#FADB67"/>
<stop offset="0.98" stop-color="#E15015"/>
</linearGradient>
<clipPath id="clip0_31_7619">
<rect width="24" height="24" fill="white"/>
</clipPath>
</defs>
</svg>

<svg xmlns="http://www.w3.org/2000/svg" width="24" height="24" fill="none" viewBox="0 0 24 24"><g clip-path="url(#a)"><path fill="url(#b)" d="M0 0h24v24H0z"/><path fill="url(#c)" d="M19.286 12.643a7.072 7.072 0 1 1-14.143.214v-6A1.286 1.286 0 0 1 6.43 5.571h5.785a7.07 7.07 0 0 1 7.072 7.072M7.715 7.547c0-.343-.3-.69-.643-.69-.339 0-.643.343-.643.69v5.713c0 .9.617 2.177 1.513 3.214a5.38 5.38 0 0 0 4.101 1.954c2.164 0 3.673-.827 4.629-1.971a5.83 5.83 0 0 0 1.324-3.647c0-1.119-.39-2.563-1.273-3.742A5.21 5.21 0 0 0 12.437 6.9c-.342 0-.617.326-.617.673 0 .343.274.621.617.621 1.552 0 2.615.707 3.309 1.629.626.872.965 1.918.969 2.991 0 .862-.245 1.963-.973 2.837-.712.849-1.873 1.492-3.69 1.492a4.13 4.13 0 0 1-3.189-1.492c-.758-.883-1.148-1.877-1.148-2.391zm2.57 0c0-.343-.3-.69-.638-.69S9 7.2 9 7.547v5.267c0 1.179 1.14 2.893 3.245 2.893 1.752 0 3.184-1.316 3.184-3.086a3.09 3.09 0 0 0-2.987-2.995.62.62 0 0 0-.617.625c0 .343.274.626.617.626.9 0 1.701.836 1.701 1.744 0 1.102-.823 1.839-1.899 1.839-1.277 0-1.958-.994-1.958-1.646z"/></g><defs><linearGradient id="b" x1="4.466" x2="29.207" y1="4.161" y2="32.58" gradientUnits="userSpaceOnUse"><stop stop-color="#1A1E21"/><stop offset="1" stop-color="#06060A"/></linearGradient><linearGradient id="c" x1="12.214" x2="12.214" y1="5.571" y2="19.714" gradientUnits="userSpaceOnUse"><stop stop-color="#FADB67"/><stop offset=".98" stop-color="#E15015"/></linearGradient><clipPath id="a"><path fill="#fff" d="M0 0h24v24H0z"/></clipPath></defs></svg>
